X:271
T:Leipers Fork
C:Gove Scrivenor
N:Transcribed by Greg Rohrer
R:bluegrass
L:1/8
Q:1/4=260
M:4/4
K:C
[c4G4] [c4G4] | [c4G4] [c4G4] | "C"c2 d2 e4 | "G"B2 c2 d4 | "F"A2 B2 c4 | "C"G2 F2 E4 | 
"F"F4 {G}A2 c2 | "C"[c2G2] A2 c2 d2 | [g8e8] | "G"[g2e2] [g6d6] | "C"c2 d2 e4 | 
"G"B2 c2 d4 | "F"A2 B2 c4 | "C"G2 F2 E4 | "F"F4 {G}A2 c2 | "C"[c2G2] A2 c2 d2 | 
ed ce "G"dc Bd | "C"c4 c2 (3BcB | "Am"A2 {G}A4 G2 | A2 B2 c4 | {G}A4 cA cd | "C"e8 | 
"F"F4 {G}A2 c2 | "C"[c4G4] c2 d2 | [g8e8] | "G"[g2e2] [g6d6] | "Am"A2 {G}A4 G2 | 
A2 B2 c4 | {G}A4 cA cd | "C"e8 | "F"f4 {^g}a2 c'2 | "C"[c'2g2] g2 c'2 d'2 | e'd' c'e' "G"d'c' bd' | 
"C"c'4 c'g fe | c2 [ec][ec] [e4c4] | "G"[B6G6G,6] [B2G2G,2] | "C"[c4G4G,4] "G"[B4G4G,4] | 
"C"[c4G4] cG FE | [E2C2] [EC][EC] [E2C2] [EC][EC] | "G"[B6G6G,6] [B2G2G,2] | "C"[c4G4G,4] "G"[B4G4G,4] | 
"C"c2 ce c2 ce | c2 ce cG FE | "G"[B6G6G,6] [B2G2G,2] | "C"[c4G4G,4] "G"[B4G4G,4] | 
"C"[c4G4G,4] cG FE | "C7"[E2_B,2] [EB,][EB,] [E2B,2] [EB,][EB,] | "F"F4 {G}A2 c2 | 
"C"[c2G2] G2 c2 d2 | ed ce "G"dc Bd | "C"c4 cG FE | [E2C2] [EC][EC] [E4C4] | 


